bootanimation-previewer.svg

<?xml version="1.0" encoding="UTF-8" standalone="no"?>
<!-- Created with Inkscape (http://www.inkscape.org/) -->

<svg
   width="118.87877mm"
   height="119.91257mm"
   viewBox="0 0 118.87877 119.91257"
   version="1.1"
   id="svg1"
   xml:space="preserve"
   inkscape:version="1.4.4 (dcaf3e7d9e, 2026-05-05)"
   sodipodi:docname="logo-bap-finished.svg"
   xmlns:inkscape="http://www.inkscape.org/namespaces/inkscape"
   xmlns:sodipodi="http://sodipodi.sourceforge.net/DTD/sodipodi-0.dtd"
   xmlns="http://www.w3.org/2000/svg"
   xmlns:svg="http://www.w3.org/2000/svg"><sodipodi:namedview
     id="namedview1"
     pagecolor="#505050"
     bordercolor="#eeeeee"
     borderopacity="1"
     inkscape:showpageshadow="0"
     inkscape:pageopacity="0"
     inkscape:pagecheckerboard="0"
     inkscape:deskcolor="#505050"
     inkscape:document-units="mm"
     inkscape:zoom="0.7180275"
     inkscape:cx="49.441003"
     inkscape:cy="249.29407"
     inkscape:window-width="1920"
     inkscape:window-height="1008"
     inkscape:window-x="0"
     inkscape:window-y="0"
     inkscape:window-maximized="1"
     inkscape:current-layer="g14" /><defs
     id="defs1"><inkscape:path-effect
       effect="powerclip"
       message=""
       id="path-effect18"
       is_visible="true"
       lpeversion="1"
       inverse="true"
       flatten="false"
       hide_clip="false" /><inkscape:path-effect
       effect="powerclip"
       message=""
       id="path-effect16"
       is_visible="true"
       lpeversion="1"
       inverse="true"
       flatten="false"
       hide_clip="false" /><inkscape:path-effect
       effect="powerclip"
       message=""
       id="path-effect7"
       is_visible="true"
       lpeversion="1"
       inverse="true"
       flatten="false"
       hide_clip="false" /><clipPath
       clipPathUnits="userSpaceOnUse"
       id="clipPath6"><rect
         style="opacity:0.5;fill:#83ab53;fill-opacity:1;stroke-width:0.0890713"
         id="rect7"
         width="20.514135"
         height="24.906506"
         x="13.742934"
         y="5.0934935" /></clipPath><clipPath
       clipPathUnits="userSpaceOnUse"
       id="clipPath7"><path
         d="m 91.068179,54.922694 c -3.61746,0 -6.61178,2.99432 -6.61178,6.61179 0,3.617461 2.99432,6.611771 6.61178,6.611771 3.61746,0 6.61177,-2.99431 6.61177,-6.611771 0,-3.61747 -2.99431,-6.61179 -6.61177,-6.61179 z m 73.137691,0 c -3.61746,0 -6.61178,2.99432 -6.61178,6.61179 0,3.617461 2.99432,6.611771 6.61178,6.611771 3.61746,0 6.61178,-2.99431 6.61178,-6.611771 0,-3.61747 -2.99432,-6.61179 -6.61178,-6.61179 z"
         fill="#ffffff"
         id="path7"
         display="block" /></clipPath><clipPath
       clipPathUnits="userSpaceOnUse"
       id="clipPath8"><rect
         style="opacity:0.5;fill:#83ab53;fill-opacity:1;stroke-width:1.23821;stroke-dasharray:none"
         id="rect9"
         width="158.46501"
         height="185.61053"
         x="48.404739"
         y="7.1164141" /></clipPath><clipPath
       clipPathUnits="userSpaceOnUse"
       id="clipath_lpe_path-effect16"><path
         d="m 91.068179,54.922694 c -3.61746,0 -6.61178,2.99432 -6.61178,6.61179 0,3.617461 2.99432,6.611771 6.61178,6.611771 3.61746,0 6.61177,-2.99431 6.61177,-6.611771 0,-3.61747 -2.99431,-6.61179 -6.61177,-6.61179 z m 73.137691,0 c -3.61746,0 -6.61178,2.99432 -6.61178,6.61179 0,3.617461 2.99432,6.611771 6.61178,6.611771 3.61746,0 6.61178,-2.99431 6.61178,-6.611771 0,-3.61747 -2.99432,-6.61179 -6.61178,-6.61179 z"
         fill="#ffffff"
         id="path16"
         display="block" /></clipPath><clipPath
       clipPathUnits="userSpaceOnUse"
       id="clipath_lpe_path-effect18"><path
         d="m 91.068179,54.922694 c -3.61746,0 -6.61178,2.99432 -6.61178,6.61179 0,3.617461 2.99432,6.611771 6.61178,6.611771 3.61746,0 6.61177,-2.99431 6.61177,-6.611771 0,-3.61747 -2.99431,-6.61179 -6.61177,-6.61179 z m 73.137691,0 c -3.61746,0 -6.61178,2.99432 -6.61178,6.61179 0,3.617461 2.99432,6.611771 6.61178,6.611771 3.61746,0 6.61178,-2.99431 6.61178,-6.611771 0,-3.61747 -2.99432,-6.61179 -6.61178,-6.61179 z"
         fill="#ffffff"
         id="path18"
         display="none" /><path
         id="lpe_path-effect18"
         class="powerclip"
         d="M 43.404738,2.1164189 H 211.86975 V 242.41321 H 43.404738 Z M 91.068179,54.922694 c -3.61746,0 -6.61178,2.99432 -6.61178,6.61179 0,3.617461 2.99432,6.611771 6.61178,6.611771 3.61746,0 6.61177,-2.99431 6.61177,-6.611771 0,-3.61747 -2.99431,-6.61179 -6.61177,-6.61179 z m 73.137691,0 c -3.61746,0 -6.61178,2.99432 -6.61178,6.61179 0,3.617461 2.99432,6.611771 6.61178,6.611771 3.61746,0 6.61178,-2.99431 6.61178,-6.611771 0,-3.61747 -2.99432,-6.61179 -6.61178,-6.61179 z" /></clipPath></defs><g
     inkscape:label="Layer 1"
     inkscape:groupmode="layer"
     id="layer1"
     transform="translate(-23.070108,-137.99812)"><g
       id="g14"
       inkscape:label="Background"><rect
         style="display:inline;opacity:0.7;fill:#333333;fill-opacity:1;stroke-width:0.411622;stroke-dasharray:none"
         id="rect19"
         width="118.87877"
         height="119.91257"
         x="23.070108"
         y="137.99812"
         ry="20.157118"
         inkscape:label="Back" /><rect
         style="display:inline;opacity:1;fill:#e6e6e6;fill-opacity:1;stroke-width:0.38;stroke-dasharray:none"
         id="rect10"
         width="109.74603"
         height="110.70041"
         x="27.636478"
         y="142.6042"
         ry="18.608568"
         inkscape:label="Back" /><rect
         style="display:inline;opacity:1;fill:#333333;fill-opacity:1;stroke-width:0.38;stroke-dasharray:none"
         id="rect11"
         width="95.88578"
         height="96.928024"
         x="34.607109"
         y="149.70889"
         ry="15.937835" /><rect
         style="display:inline;opacity:1;fill:#e6e6e6;fill-opacity:1;stroke-width:0.38;stroke-dasharray:none"
         id="rect12"
         width="67.966087"
         height="80.145813"
         x="48.557133"
         y="157.1788"
         ry="4.4774003" /></g><g
       id="g5-1"
       transform="matrix(0.36702089,0,0,0.37872878,35.704466,164.33337)"
       style="display:inline;fill:#83ab53;fill-opacity:1;stroke-width:1.0005;stroke-dasharray:none"
       clip-path="url(#clipPath8)"
       inkscape:label="Android"><path
         d="m 78.443434,7.1165423 c -0.420011,0.0043 -0.811384,0.1126572 -1.197194,0.3265031 -1.266954,0.7022904 -1.683587,2.1581745 -0.979523,3.4283386 l 12.516119,22.61065 C 64.702394,46.011756 48.437336,69.823253 48.404738,97.151012 H 206.86975 C 206.83719,69.823253 190.5721,46.011756 166.49164,33.482034 l 12.51614,-22.61065 c 0.70406,-1.2701641 0.28742,-2.7260482 -0.97953,-3.4283386 -0.38581,-0.2138459 -0.77718,-0.3224999 -1.1972,-0.3265031 -0.89913,-0.00868 -1.7514,0.4405777 -2.23114,1.3060295 L 161.92053,31.278106 c -10.37223,-4.600784 -22.0063,-7.183163 -34.28329,-7.183163 -12.27699,0 -23.91107,2.582379 -34.283292,7.183163 L 80.674569,8.4225718 C 80.194838,7.55712 79.342558,7.1079173 78.443434,7.1165423 Z M 48.404738,103.40907 v 114.84904 c 0,10.61193 8.543179,19.1551 19.15511,19.1551 H 187.71464 c 10.61194,0 19.15511,-8.54317 19.15511,-19.1551 V 103.40907 Z"
         fill="#a4c639"
         id="path17"
         clip-path="url(#clipath_lpe_path-effect18)"
         style="display:inline;fill:#83ab53;fill-opacity:1;stroke-width:1.0005;stroke-dasharray:none"
         inkscape:original-d="m 78.443434,7.1165423 c -0.420011,0.0043 -0.811384,0.1126572 -1.197194,0.3265031 -1.266954,0.7022904 -1.683587,2.1581745 -0.979523,3.4283386 l 12.516119,22.61065 C 64.702394,46.011756 48.437336,69.823253 48.404738,97.151012 H 206.86975 C 206.83719,69.823253 190.5721,46.011756 166.49164,33.482034 l 12.51614,-22.61065 c 0.70406,-1.2701641 0.28742,-2.7260482 -0.97953,-3.4283386 -0.38581,-0.2138459 -0.77718,-0.3224999 -1.1972,-0.3265031 -0.89913,-0.00868 -1.7514,0.4405777 -2.23114,1.3060295 L 161.92053,31.278106 c -10.37223,-4.600784 -22.0063,-7.183163 -34.28329,-7.183163 -12.27699,0 -23.91107,2.582379 -34.283292,7.183163 L 80.674569,8.4225718 C 80.194838,7.55712 79.342558,7.1079173 78.443434,7.1165423 Z M 48.404738,103.40907 v 114.84904 c 0,10.61193 8.543179,19.1551 19.15511,19.1551 H 187.71464 c 10.61194,0 19.15511,-8.54317 19.15511,-19.1551 V 103.40907 Z"
         inkscape:path-effect="#path-effect18" /></g><g
       id="g5"
       style="display:inline"
       inkscape:label="Play Button"
       transform="translate(-1.1972008,0.58625793)"><circle
         style="display:inline;opacity:0.5;fill:#000000;stroke-width:0.525698"
         id="path1"
         cx="108.57971"
         cy="222.71835"
         r="30" /><circle
         style="display:inline;opacity:1;fill:#e6e6e6;fill-opacity:1;stroke-width:0.547905"
         id="path2"
         cx="108.57971"
         cy="222.71835"
         r="27.5"
         inkscape:transform-center-x="37.401365"
         inkscape:transform-center-y="-0.73697271" /><circle
         style="display:inline;opacity:1;fill:#5b963a;fill-opacity:1;stroke-width:0.269013"
         id="path3"
         cx="108.57971"
         cy="222.71835"
         r="22.5" /><path
         sodipodi:type="star"
         style="opacity:1;fill:#dcdcdc;fill-opacity:1;stroke-width:0.38;stroke-dasharray:none"
         id="path10"
         inkscape:flatsided="true"
         sodipodi:sides="3"
         sodipodi:cx="102.74175"
         sodipodi:cy="211.34608"
         sodipodi:r1="22.462029"
         sodipodi:r2="4.6515136"
         sodipodi:arg1="0.53087556"
         sodipodi:arg2="1.5780731"
         inkscape:rounded="0"
         inkscape:randomized="0"
         d="m 122.1122,222.71835 -38.904345,-0.2831 19.697345,-33.5506 z"
         inkscape:transform-center-x="-0.30780945"
         inkscape:transform-center-y="0.19605437"
         transform="matrix(0.0067665,0.62148098,-0.58998273,0.00712775,233.14773,158.0166)" /></g><g
       id="g13"
       inkscape:label="Film"
       style="fill:#ececec"><rect
         style="opacity:1;fill:#ececec;fill-opacity:1;stroke-width:0.38;stroke-dasharray:none"
         id="rect13-1"
         width="6.8233948"
         height="7.2630692"
         x="119.78275"
         y="184.25389"
         rx="1.4005049"
         ry="1.2050933" /><rect
         style="opacity:1;fill:#ececec;fill-opacity:1;stroke-width:0.38;stroke-dasharray:none"
         id="rect13-7"
         width="6.8233948"
         height="7.2630692"
         x="38.43248"
         y="211.91768"
         rx="1.4005049"
         ry="1.2050933" /><rect
         style="opacity:1;fill:#ececec;fill-opacity:1;stroke-width:0.38;stroke-dasharray:none"
         id="rect13-9"
         width="6.8233948"
         height="7.2630692"
         x="38.43248"
         y="198.08578"
         rx="1.4005049"
         ry="1.2050933"
         inkscape:transform-center-x="-3.4116974" /><rect
         style="opacity:1;fill:#ececec;fill-opacity:1;stroke-width:0.38;stroke-dasharray:none"
         id="rect13-2"
         width="6.8233948"
         height="7.2630692"
         x="38.43248"
         y="184.25389"
         rx="1.4005049"
         ry="1.2050933" /><rect
         style="opacity:1;fill:#ececec;fill-opacity:1;stroke-width:0.38;stroke-dasharray:none"
         id="rect13"
         width="6.8233948"
         height="7.2630692"
         x="38.43248"
         y="170.422"
         rx="1.4005049"
         ry="1.2050933" /><rect
         style="opacity:1;fill:#ececec;fill-opacity:1;stroke-width:0.38;stroke-dasharray:none"
         id="rect13-8"
         width="6.8233948"
         height="7.2630692"
         x="119.78275"
         y="170.422"
         rx="1.4005049"
         ry="1.2050933" /></g></g></svg>

<?xml version="1.0" encoding="UTF-8" standalone="no"?>
<!-- Created with Inkscape (http://www.inkscape.org/) -->

<svg
   width="118.87877mm"
   height="119.91257mm"
   viewBox="0 0 118.87877 119.91257"
   version="1.1"
   id="svg1"
   xml:space="preserve"
   inkscape:version="1.4.4 (dcaf3e7d9e, 2026-05-05)"
   sodipodi:docname="logo-bap-finished.svg"
   xmlns:inkscape="http://www.inkscape.org/namespaces/inkscape"
   xmlns:sodipodi="http://sodipodi.sourceforge.net/DTD/sodipodi-0.dtd"
   xmlns="http://www.w3.org/2000/svg"
   xmlns:svg="http://www.w3.org/2000/svg"><sodipodi:namedview
     id="namedview1"
     pagecolor="#505050"
     bordercolor="#eeeeee"
     borderopacity="1"
     inkscape:showpageshadow="0"
     inkscape:pageopacity="0"
     inkscape:pagecheckerboard="0"
     inkscape:deskcolor="#505050"
     inkscape:document-units="mm"
     inkscape:zoom="0.50772211"
     inkscape:cx="-645.03789"
     inkscape:cy="352.55506"
     inkscape:window-width="1920"
     inkscape:window-height="1008"
     inkscape:window-x="0"
     inkscape:window-y="0"
     inkscape:window-maximized="1"
     inkscape:current-layer="layer1" /><defs
     id="defs1"><inkscape:path-effect
       effect="powerclip"
       message=""
       id="path-effect18"
       is_visible="true"
       lpeversion="1"
       inverse="true"
       flatten="false"
       hide_clip="false" /><inkscape:path-effect
       effect="powerclip"
       message=""
       id="path-effect16"
       is_visible="true"
       lpeversion="1"
       inverse="true"
       flatten="false"
       hide_clip="false" /><inkscape:path-effect
       effect="powerclip"
       message=""
       id="path-effect7"
       is_visible="true"
       lpeversion="1"
       inverse="true"
       flatten="false"
       hide_clip="false" /><clipPath
       clipPathUnits="userSpaceOnUse"
       id="clipPath6"><rect
         style="opacity:0.5;fill:#83ab53;fill-opacity:1;stroke-width:0.0890713"
         id="rect7"
         width="20.514135"
         height="24.906506"
         x="13.742934"
         y="5.0934935" /></clipPath><clipPath
       clipPathUnits="userSpaceOnUse"
       id="clipPath7"><path
         d="m 91.068179,54.922694 c -3.61746,0 -6.61178,2.99432 -6.61178,6.61179 0,3.617461 2.99432,6.611771 6.61178,6.611771 3.61746,0 6.61177,-2.99431 6.61177,-6.611771 0,-3.61747 -2.99431,-6.61179 -6.61177,-6.61179 z m 73.137691,0 c -3.61746,0 -6.61178,2.99432 -6.61178,6.61179 0,3.617461 2.99432,6.611771 6.61178,6.611771 3.61746,0 6.61178,-2.99431 6.61178,-6.611771 0,-3.61747 -2.99432,-6.61179 -6.61178,-6.61179 z"
         fill="#ffffff"
         id="path7"
         display="block" /></clipPath><clipPath
       clipPathUnits="userSpaceOnUse"
       id="clipPath8"><rect
         style="opacity:0.5;fill:#83ab53;fill-opacity:1;stroke-width:1.23821;stroke-dasharray:none"
         id="rect9"
         width="158.46501"
         height="185.61053"
         x="48.404739"
         y="7.1164141" /></clipPath><clipPath
       clipPathUnits="userSpaceOnUse"
       id="clipath_lpe_path-effect16"><path
         d="m 91.068179,54.922694 c -3.61746,0 -6.61178,2.99432 -6.61178,6.61179 0,3.617461 2.99432,6.611771 6.61178,6.611771 3.61746,0 6.61177,-2.99431 6.61177,-6.611771 0,-3.61747 -2.99431,-6.61179 -6.61177,-6.61179 z m 73.137691,0 c -3.61746,0 -6.61178,2.99432 -6.61178,6.61179 0,3.617461 2.99432,6.611771 6.61178,6.611771 3.61746,0 6.61178,-2.99431 6.61178,-6.611771 0,-3.61747 -2.99432,-6.61179 -6.61178,-6.61179 z"
         fill="#ffffff"
         id="path16"
         display="block" /></clipPath></defs><g
     inkscape:label="Layer 1"
     inkscape:groupmode="layer"
     id="layer1"
     transform="translate(-23.070108,-137.99812)"><g
       id="g14"
       inkscape:label="Background"><rect
         style="display:inline;opacity:0.7;fill:#333333;fill-opacity:1;stroke-width:0.411622;stroke-dasharray:none"
         id="rect19"
         width="118.87877"
         height="119.91257"
         x="23.070108"
         y="137.99812"
         ry="20.157118"
         inkscape:label="Back" /><rect
         style="display:inline;opacity:1;fill:#e6e6e6;fill-opacity:1;stroke-width:0.38;stroke-dasharray:none"
         id="rect10"
         width="109.74603"
         height="110.70041"
         x="27.636478"
         y="142.6042"
         ry="18.608568"
         inkscape:label="Back" /><rect
         style="display:inline;opacity:1;fill:#333333;fill-opacity:1;stroke-width:0.38;stroke-dasharray:none"
         id="rect11"
         width="95.88578"
         height="96.928024"
         x="34.607109"
         y="149.70889"
         ry="15.937835" /><rect
         style="display:inline;opacity:1;fill:#e6e6e6;fill-opacity:1;stroke-width:0.38;stroke-dasharray:none"
         id="rect12"
         width="67.966087"
         height="80.145813"
         x="48.557133"
         y="157.1788"
         ry="4.4774003" /></g><g
       id="g5-1"
       transform="matrix(0.36702089,0,0,0.37872878,35.704466,164.33337)"
       style="display:inline;fill:#83ab53;fill-opacity:1;stroke-width:1.0005;stroke-dasharray:none"
       clip-path="url(#clipPath8)"
       inkscape:label="Android"><path
         id="path17"
         clip-path="none"
         style="display:inline;fill:#83ab53;fill-opacity:1;stroke-width:1.0005;stroke-dasharray:none"
         d="M 78.443774 7.1159614 C 78.023763 7.1202614 77.631378 7.2295884 77.245568 7.4434343 C 75.978614 8.1457247 75.562946 9.6008203 76.26701 10.870985 L 88.782696 33.481629 C 64.702254 46.011351 48.436755 69.822801 48.404157 97.15056 L 206.87 97.15056 C 206.83744 69.822801 190.57192 46.011351 166.49146 33.481629 L 179.00715 10.870985 C 179.71121 9.6008203 179.29554 8.1457247 178.02859 7.4434343 C 177.64278 7.2295884 177.2504 7.1199646 176.83038 7.1159614 C 175.93125 7.1072814 175.07985 7.5576725 174.60011 8.4231243 L 161.9211 31.278008 C 151.54887 26.677224 139.91477 24.095435 127.63778 24.095435 C 115.36079 24.095435 103.72668 26.677224 93.354462 31.278008 L 80.674041 8.4231243 C 80.19431 7.5576725 79.342898 7.1073364 78.443774 7.1159614 z M 91.067875 54.922921 C 94.685335 54.922921 97.679829 57.917676 97.679829 61.535146 C 97.679829 65.152607 94.685335 68.146007 91.067875 68.146007 C 87.450415 68.146007 84.455921 65.152607 84.455921 61.535146 C 84.455921 57.917676 87.450415 54.922921 91.067875 54.922921 z M 164.20628 54.922921 C 167.82374 54.922921 170.81823 57.917676 170.81823 61.535146 C 170.81823 65.152607 167.82374 68.146007 164.20628 68.146007 C 160.58882 68.146007 157.59433 65.152607 157.59433 61.535146 C 157.59433 57.917676 160.58882 54.922921 164.20628 54.922921 z M 48.404157 103.40939 L 48.404157 192.72764 L 206.87 192.72764 L 206.87 103.40939 L 48.404157 103.40939 z " /></g><g
       id="g5"
       style="display:inline"
       inkscape:label="Play Button"
       transform="translate(-1.1972008,0.58625793)"><circle
         style="display:inline;opacity:0.5;fill:#000000;stroke-width:0.525698"
         id="path1"
         cx="108.57971"
         cy="222.71835"
         r="30" /><circle
         style="display:inline;opacity:1;fill:#e6e6e6;fill-opacity:1;stroke-width:0.547905"
         id="path2"
         cx="108.57971"
         cy="222.71835"
         r="27.5"
         inkscape:transform-center-x="37.401365"
         inkscape:transform-center-y="-0.73697271" /><circle
         style="display:inline;opacity:1;fill:#5b963a;fill-opacity:1;stroke-width:0.269013"
         id="path3"
         cx="108.57971"
         cy="222.71835"
         r="22.5" /><path
         sodipodi:type="star"
         style="opacity:1;fill:#dcdcdc;fill-opacity:1;stroke-width:0.38;stroke-dasharray:none"
         id="path10"
         inkscape:flatsided="true"
         sodipodi:sides="3"
         sodipodi:cx="102.74175"
         sodipodi:cy="211.34608"
         sodipodi:r1="22.462029"
         sodipodi:r2="4.6515136"
         sodipodi:arg1="0.53087556"
         sodipodi:arg2="1.5780731"
         inkscape:rounded="0"
         inkscape:randomized="0"
         d="m 122.1122,222.71835 -38.904345,-0.2831 19.697345,-33.5506 z"
         inkscape:transform-center-x="-0.30780945"
         inkscape:transform-center-y="0.19605437"
         transform="matrix(0.0067665,0.62148098,-0.58998273,0.00712775,233.14773,158.0166)" /></g><g
       id="g13"
       inkscape:label="Film"
       style="fill:#ececec"><rect
         style="opacity:1;fill:#ececec;fill-opacity:1;stroke-width:0.38;stroke-dasharray:none"
         id="rect13-1"
         width="6.8233948"
         height="7.2630692"
         x="119.78275"
         y="184.25389"
         rx="1.4005049"
         ry="1.2050933" /><rect
         style="opacity:1;fill:#ececec;fill-opacity:1;stroke-width:0.38;stroke-dasharray:none"
         id="rect13-7"
         width="6.8233948"
         height="7.2630692"
         x="38.43248"
         y="211.91768"
         rx="1.4005049"
         ry="1.2050933" /><rect
         style="opacity:1;fill:#ececec;fill-opacity:1;stroke-width:0.38;stroke-dasharray:none"
         id="rect13-9"
         width="6.8233948"
         height="7.2630692"
         x="38.43248"
         y="198.08578"
         rx="1.4005049"
         ry="1.2050933"
         inkscape:transform-center-x="-3.4116974" /><rect
         style="opacity:1;fill:#ececec;fill-opacity:1;stroke-width:0.38;stroke-dasharray:none"
         id="rect13-2"
         width="6.8233948"
         height="7.2630692"
         x="38.43248"
         y="184.25389"
         rx="1.4005049"
         ry="1.2050933" /><rect
         style="opacity:1;fill:#ececec;fill-opacity:1;stroke-width:0.38;stroke-dasharray:none"
         id="rect13"
         width="6.8233948"
         height="7.2630692"
         x="38.43248"
         y="170.422"
         rx="1.4005049"
         ry="1.2050933" /><rect
         style="opacity:1;fill:#ececec;fill-opacity:1;stroke-width:0.38;stroke-dasharray:none"
         id="rect13-8"
         width="6.8233948"
         height="7.2630692"
         x="119.78275"
         y="170.422"
         rx="1.4005049"
         ry="1.2050933" /></g></g></svg>
